src/actions/24/object-rotate-right.svg

<svg xmlns="http://www.w3.org/2000/svg" viewBox="0 0 24 24">
  <defs id="defs3051">
    <style type="text/css" id="current-color-scheme">
      .ColorScheme-Text {
        color:#2e3440;
      }
      </style>
  </defs>
 <path style="fill:currentColor;fill-opacity:1;stroke:none" 
     d="M 10.599609 4 L 9.8925781 4.7070312 L 12.185547 7 L 9.9003906 7 L 9 7 L 9 8 L 9.9003906 8 L 12.185547 8 L 9.8925781 10.292969 L 10.599609 11 L 13.892578 7.7070312 L 14.099609 7.5 L 13.892578 7.2929688 L 10.599609 4 z M 7.5 7 C 7.223 7 7 7.223 7 7.5 C 7 7.777 7.223 8 7.5 8 C 7.777 8 8 7.777 8 7.5 C 8 7.223 7.777 7 7.5 7 z M 4.5 9 C 4.223 9 4 9.223 4 9.5 C 4 9.777 4.223 10 4.5 10 C 4.777 10 5 9.777 5 9.5 C 5 9.223 4.777 9 4.5 9 z M 16.050781 9 L 10 15.050781 L 14.949219 20 L 21 13.949219 L 16.050781 9 z M 16.050781 10.414062 L 19.585938 13.949219 L 14.808594 18.726562 L 11.273438 15.191406 L 16.050781 10.414062 z M 3.5 12 C 3.223 12 3 12.223 3 12.5 C 3 12.777 3.223 13 3.5 13 C 3.777 13 4 12.777 4 12.5 C 4 12.223 3.777 12 3.5 12 z M 4.5 15 C 4.223 15 4 15.223 4 15.5 C 4 15.777 4.223 16 4.5 16 C 4.777 16 5 15.777 5 15.5 C 5 15.223 4.777 15 4.5 15 z M 7.5 17 C 7.223 17 7 17.223 7 17.5 C 7 17.777 7.223 18 7.5 18 C 7.777 18 8 17.777 8 17.5 C 8 17.223 7.777 17 7.5 17 z "
     class="ColorScheme-Text"
     />
</svg>

<svg viewBox="0 0 24 24" xmlns="http://www.w3.org/2000/svg">
 <defs>
  <style type="text/css">.ColorScheme-Text {
        color:#2e3440;
      }</style>
 </defs>
 <path class="ColorScheme-Text" d="m10.6 4-0.70703 0.70703 2.293 2.293h-2.2852-0.90039v1h0.90039 2.2852l-2.293 2.293 0.70703 0.70703 3.5-3.5-3.5-3.5zm-3.0996 3c-0.277 0-0.5 0.223-0.5 0.5s0.223 0.5 0.5 0.5 0.5-0.223 0.5-0.5-0.223-0.5-0.5-0.5zm-3 2c-0.277 0-0.5 0.223-0.5 0.5s0.223 0.5 0.5 0.5 0.5-0.223 0.5-0.5-0.223-0.5-0.5-0.5zm11.551 0-6.0508 6.0508 4.9492 4.9492 6.0508-6.0508-4.9492-4.9492zm0 1.4141 3.5352 3.5352-4.7773 4.7773-3.5352-3.5352 4.7773-4.7773zm-12.551 1.5859c-0.277 0-0.5 0.223-0.5 0.5s0.223 0.5 0.5 0.5 0.5-0.223 0.5-0.5-0.223-0.5-0.5-0.5zm1 3c-0.277 0-0.5 0.223-0.5 0.5s0.223 0.5 0.5 0.5 0.5-0.223 0.5-0.5-0.223-0.5-0.5-0.5zm3 2c-0.277 0-0.5 0.223-0.5 0.5s0.223 0.5 0.5 0.5 0.5-0.223 0.5-0.5-0.223-0.5-0.5-0.5z" fill="currentColor"/>
</svg>
